X:13
T: STILLE STILLE KEIN GERAEUSCH GEMACHT
N: K0046
O: Europa, Mitteleuropa, Deutschland, Thueringen
R: Kinder -, Wiegen - Lied
M: 2/4
L: 1/16
K: D
 | A4F2z2 | A4F2z2 |
G3FG2A2 | F4z4 |
E2E2G2G2 | F3GA4 |
E2E2G2G2 | F3GA4 |
A4F2z2 | A4F2z2 |
G3FG2A2 | F4z4

